Hatter-kde-dark/actions/22/system-suspend-hibernate.svg

<svg xmlns="http://www.w3.org/2000/svg" viewBox="0 0 22 22">
  <defs id="defs3051">
    <style type="text/css" id="current-color-scheme">
      .ColorScheme-Text {
        color:#dedede;
      }
      </style>
  </defs>
    <path 
     style="fill:currentColor;fill-opacity:1;stroke:none" 
     id="path918-7"
     d="m 6.7890625,3.412109 -0.8671875,0.5 1.6464844,2.84961 L 5.3203125,6.160156 5.0605469,7.126953 8.2753906,7.988281 9.8457031,10.705078 H 6.7070312 L 4.3535156,8.351562 3.6464844,9.058594 5.2929688,10.705078 H 2 v 1 h 3.2929688 l -1.6464844,1.646484 0.7070312,0.707032 2.3535156,-2.353516 h 3.1328126 l -1.5664063,2.712891 -3.2148437,0.861328 0.2578124,0.966797 2.25,-0.603516 -1.6464843,2.851563 0.8652343,0.5 1.6464844,-2.851563 0.6035156,2.25 L 10,18.132812 9.1386719,14.916016 10.994141,11.705078 H 11 l 1.857422,3.21875 -0.861328,3.214844 0.966797,0.257812 0.601562,-2.248046 L 15.210938,19 16.078125,18.5 14.431641,15.648438 16.679688,16.25 l 0.259765,-0.964844 -3.214844,-0.861328 -1.570312,-2.71875 h 3.138672 l 2.353515,2.353516 0.707032,-0.707032 -1.646485,-1.646484 H 20 v -1 H 16.707031 L 18.353516,9.058594 18.302734,9 H 17 l -1.707031,1.705078 H 12.15625 L 13.140625,9 H 12 l -0.998047,1.703125 H 11 l -0.0039,-0.002 L 9.1425841,7.488234 10.003912,4.273391 9.0371154,4.013625 l -0.6015625,2.25 z M 17.503142,5.25 H 19.00628 L 18.978064,6 H 16 l 1.503141,-2.25 h -1.50314 V 3 h 3.006276 z m -4.004708,1.999999 h 1.501568 l -0.02817,0.75 H 11.996867 L 13.49844,5.75 H 11.996861 V 5 H 15 Z" 
     class="ColorScheme-Text"
     />
</svg>

<?xml version="1.0" encoding="UTF-8"?>
<svg viewBox="0 0 22 22" xmlns="http://www.w3.org/2000/svg">
 <defs id="defs3051">
  <style id="current-color-scheme" type="text/css">.ColorScheme-Text {
        color:#dedede;
      }</style>
 </defs>
 <path id="path918-7" class="ColorScheme-Text" d="m6.7891 3.4121-0.86719 0.5 1.6465 2.8496-2.248-0.60156-0.25977 0.9668 3.2148 0.86133 1.5703 2.7168h-3.1387l-2.3535-2.3535-0.70703 0.70703 1.6465 1.6465h-3.293v1h3.293l-1.6465 1.6465 0.70703 0.70703 2.3535-2.3535h3.1328l-1.5664 2.7129-3.2148 0.86133 0.25781 0.9668 2.25-0.60352-1.6465 2.8516 0.86523 0.5 1.6465-2.8516 0.60352 2.25 0.96484-0.25977-0.86133-3.2168 1.8555-3.2109h0.005859l1.8574 3.2188-0.86133 3.2148 0.9668 0.25781 0.60156-2.248 1.6465 2.8516 0.86719-0.5-1.6465-2.8516 2.248 0.60156 0.25976-0.96484-3.2148-0.86133-1.5703-2.7188h3.1387l2.3535 2.3535 0.70703-0.70703-1.6465-1.6465h3.293v-1h-3.293l1.6465-1.6465-0.050782-0.058594h-1.3027l-1.707 1.7051h-3.1367l0.98438-1.7051h-1.1406l-0.99805 1.7031h-0.001953l-0.0039-2e-3 -1.8535-3.2129 0.86133-3.2148-0.9668-0.25977-0.60156 2.25zm10.714 1.8379h1.5031l-0.028216 0.75h-2.9781l1.5031-2.25h-1.5031v-0.75h3.0063zm-4.0047 2h1.5016l-0.02817 0.75h-2.975l1.5016-2.25h-1.5016v-0.75h3.0031z" fill="currentColor"/>
</svg>
